packages/foundations/assets/icons/functional/images/maps/map_pin.svg

<svg xmlns="http://www.w3.org/2000/svg" width="32" height="32" fill="none"><path fill="#1A1C1F" fill-rule="evenodd" d="M14.907 2.083c-1.117.097-2.527.579-3.574 1.222-2.491 1.532-4.061 4.047-4.293 6.878-.117 1.442.146 2.814.867 4.51.294.693 2.292 4.772 4.926 10.059 2.744 5.507 2.545 5.176 3.138 5.208.259.014.364-.006.536-.105.202-.115.276-.247 1.449-2.575 2.361-4.684 5.88-11.887 6.216-12.72.678-1.685.921-2.997.796-4.308-.116-1.228-.397-2.231-.921-3.292-1.03-2.089-2.967-3.757-5.22-4.498-.779-.256-1.137-.322-2.057-.381-.934-.059-1.153-.059-1.863.002m2.026 2.046c.584.03 1.39.259 2.083.591a6.96 6.96 0 0 1 3.167 3.073c.58 1.11.75 1.84.75 3.211 0 1.103-.069 1.489-.454 2.516-.299.8-.472 1.169-2.839 6.053-3.202 6.607-3.546 7.307-3.591 7.307-.064 0-1.735-3.364-4.782-9.627-2.004-4.12-2.223-4.737-2.224-6.266-.001-.837.068-1.335.276-2 .166-.534.632-1.472.992-1.999.352-.514 1.123-1.285 1.637-1.637.733-.501 1.764-.966 2.532-1.142.307-.07 1.314-.141 1.707-.12zM15.44 8.054c-.454.081-1.186.483-1.557.853a3.2 3.2 0 0 0-.769 1.306c-.119.43-.093 1.316.052 1.734.319.918 1.163 1.71 2.068 1.942.181.047.525.084.766.084.803 0 1.466-.264 2.033-.81.977-.938 1.217-2.268.633-3.503-.301-.635-1.02-1.252-1.743-1.495-.38-.127-1.095-.181-1.483-.111"/></svg>

<svg width="32" height="32" viewBox="0 0 32 32" fill="none" xmlns="http://www.w3.org/2000/svg"><path d="M14.907 2.083 C 13.790 2.180,12.380 2.662,11.333 3.305 C 8.842 4.837,7.272 7.352,7.040 10.183 C 6.923 11.625,7.186 12.997,7.907 14.693 C 8.201 15.386,10.199 19.465,12.833 24.752 C 15.577 30.259,15.378 29.928,15.971 29.960 C 16.230 29.974,16.335 29.954,16.507 29.855 C 16.709 29.740,16.783 29.608,17.956 27.280 C 20.317 22.596,23.836 15.393,24.172 14.560 C 24.850 12.875,25.093 11.563,24.968 10.252 C 24.852 9.024,24.571 8.021,24.047 6.960 C 23.017 4.871,21.080 3.203,18.827 2.462 C 18.048 2.206,17.690 2.140,16.770 2.081 C 15.836 2.022,15.617 2.022,14.907 2.083 M16.933 4.129 C 17.517 4.159,18.323 4.388,19.016 4.720 C 20.376 5.372,21.474 6.438,22.183 7.793 C 22.763 8.903,22.933 9.633,22.933 11.004 C 22.933 12.107,22.864 12.493,22.479 13.520 C 22.180 14.320,22.007 14.689,19.640 19.573 C 16.438 26.180,16.094 26.880,16.049 26.880 C 15.985 26.880,14.314 23.516,11.267 17.253 C 9.263 13.133,9.044 12.516,9.043 10.987 C 9.042 10.150,9.111 9.652,9.319 8.987 C 9.485 8.453,9.951 7.515,10.311 6.988 C 10.663 6.474,11.434 5.703,11.948 5.351 C 12.681 4.850,13.712 4.385,14.480 4.209 C 14.787 4.139,15.794 4.068,16.187 4.089 C 16.333 4.097,16.669 4.115,16.933 4.129 M15.440 8.054 C 14.986 8.135,14.254 8.537,13.883 8.907 C 13.538 9.253,13.242 9.755,13.114 10.213 C 12.995 10.643,13.021 11.529,13.166 11.947 C 13.485 12.865,14.329 13.657,15.234 13.889 C 15.415 13.936,15.759 13.973,16.000 13.973 C 16.803 13.973,17.466 13.709,18.033 13.163 C 19.010 12.225,19.250 10.895,18.666 9.660 C 18.365 9.025,17.646 8.408,16.923 8.165 C 16.543 8.038,15.828 7.984,15.440 8.054 " fill="#1A1C1F" stroke="none" fill-rule="evenodd"></path></svg>
